!!!COM:	Johannes Ockeghem
!!!CDT:	~1425-1497/02/06
!!!OPR:	Missa Fors seulement
!!!ONM:	2
!!!OTL:	Gloria
!!!AGN:	Mass; Gloria
!!!SCT:	Ock1007b
!!!SCA:	Ock1007b
!!!voices:	5
!!!voices-OPR:	5
**kern	**kern	**kern	**kern	**kern
*staff5	*staff4	*staff3	*staff2	*staff1
*Ivox	*Ivox	*Ivox	*Ivox	*Ivox
*I"Bassus	*I"Vagans	*I"Tenor	*I"Contratenor	*I"Discantus
*I'B	*I'V	*I'T	*I'Ct	*I'D
*>[A,B]	*>[A,B]	*>[A,B]	*>[A,B]	*>[A,B]
*>A	*>A	*>A	*>A	*>A
*clefF4	*clefF4	*clefGv2	*clefGv2	*clefG2
*k[]	*k[]	*k[]	*k[]	*k[]
*M3/1	*M3/1	*M3/1	*M3/1	*M3/1
*met(O)	*met(O)	*met(O)	*met(O)	*met(O)
!!section: Et in terra pax
!!!OMD: Et in terra pax
=1-	=1-	=1-	=1-	=1-
0D	1r	0.r	0d	0.r
.	1r	.	.	.
2.BB-i/	[1D	.	1d	.
4GG/	.	.	.	.
=2	=2	=2	=2	=2
1GG	1D]	0.r	1d	0.r
2FF/	1D	.	1.d	.
2.GG/	.	.	.	.
.	1D	.	.	.
4FF/	.	.	.	.
[2DD/	.	.	4c\	.
.	.	.	4B\	.
=3	=3	=3	=3	=3
2DD/]	1.D	0.r	0A	0.r
1FF	.	.	.	.
2DD/	4C/	.	.	.
.	4BB/	.	.	.
2.FF/	1AA	.	1A	.
4GG/	.	.	.	.
=4	=4	=4	=4	=4
0AA	1AA	0.r	1c	0.r
.	1C	.	1c	.
[1GG	1D	.	[1B-i	.
=5	=5	=5	=5	=5
2GG/]	1E	0.r	2B-\]	0.r
4FF/	.	.	4A/	.
4EE/	.	.	4G/	.
1DD	1F	.	2B-i\	.
.	.	.	2A/	.
2r	[1G	.	2G/	.
[2GG/	.	.	[2d\	.
=6	=6	=6	=6	=6
2GG/]	2G\]	0.r	4d\]	0.r
.	.	.	4B-i\	.
2DD/	2F\	.	4c\	.
.	.	.	4B-i\	.
2GG/	2E\	.	4A/	.
.	.	.	4G/	.
2BB-i/	2D\	.	1G	.
1AA	1C	.	.	.
.	.	.	2F#i/	.
=7	=7	=7	=7	=7
1.GG	1D	1r	2.G/	0d
.	.	.	4F/	.
.	1G	1r	1D	.
4FF/	.	.	.	.
4EE/	.	.	.	.
1DD	1F	[1A	1r	1d
=8	=8	=8	=8	=8
1DD	2.D\	1A]	1F	1d
.	4BB/	.	.	.
1.FF	1AA	1A	2.A/	1.d
.	.	.	4B\	.
.	1F	1A	1c	.
2GG/	.	.	.	4c/
.	.	.	.	4B/
=9	=9	=9	=9	=9
1AA	2E\	1A	1c	1A
.	2F\	.	.	.
1AA	4E\	1A	1c	1r
.	4D\	.	.	.
.	2C/	.	.	.
1AA	2E\	1A	1c	[1e
.	[2E\	.	.	.
=10	=10	=10	=10	=10
1AA	4E\]	1A	1c	1e]
.	4AA/	.	.	.
.	1A	.	.	.
1AA	.	2A/	1c	1e
.	4G\	1A	.	.
.	4F\	.	.	.
2AA/	2E\	.	2c\	1e
[2AA/	2C/	4G/	[2c\	.
.	.	4F/	.	.
=11	=11	=11	=11	=11
2AA/]	1.C	1E	2c\]	2e/
4GG/	.	.	4B\	1e
4FF/	.	.	4A/	.
1EE	.	1E	1G	.
.	1BB	.	.	4d/
.	.	.	.	4c/
1EE	.	[1G	1r	1B
.	[2E\	.	.	.
=12	=12	=12	=12	=12
1.GG	2E\]	2G/]	1G	1B
.	4D\	4F/	.	.
.	4C/	4E/	.	.
.	2BB/	1D	1G	1d
4FF/	2AA/	.	.	.
4EE/	.	.	.	.
1DD	1AA	1F	1A	1d
=13	=13	=13	=13	=13
1.AA	2r	2.F/	2.A/	1.c
.	1C	.	.	.
.	.	4G/	4G/	.
.	.	1A	1E	.
4GG/	2D\	.	.	2A/
4FF/	.	.	.	.
1EE	1E	[1G	1r	1c
=14	=14	=14	=14	=14
0GG	0D	1G]	0.r	1.B
.	.	1G	.	.
.	.	.	.	2A/
1AA	1C	1F	.	[1A
=15	=15	=15	=15	=15
1EE	0BB	1E	1r	1A]
1r	.	1D	1r	1G#i
[1AA	1AA	1C	1E	1A
=16	=16	=16	=16	=16
1AA]	1r	1C	2E/	1e
.	.	.	2E/	.
1FF	1AA	1D	1D	1.f
1DD	1BB	1F	1D	.
.	.	.	.	2d/
=17	=17	=17	=17	=17
0EE	1.C	2.E/	1G	2.c/
.	.	4F/	.	4d/
.	.	1G	1r	1e
.	4BB/	.	.	.
.	4C/	.	.	.
1DD	1D	2.F/	[1A	1f
.	.	4D/	.	.
=18	=18	=18	=18	=18
1AA	2E\	2C/	2A/]	2e/
.	1F	1F	2c\	2c/
1BB	.	.	2B\	1d
.	2D\	2G/	1G	.
1C	1E	1C	.	1c
.	.	.	4F/	.
.	.	.	4G/	.
=19	=19	=19	=19	=19
0FF	2.F\	2.F/	2A/	1r
.	.	.	1c	.
.	4E\	4G/	.	.
.	1C	1A	.	1f
.	.	.	2A/	.
2.BB-i/	2D\	2F/	2.B-i\	1f
.	[2F\	[2B-\	.	.
4AA/	.	.	4c\	.
=20	=20	=20	=20	=20
2BB-i/	4F\]	2B-\]	2.d\	1g
.	4D\	.	.	.
2AA/	2E\	2c\	.	.
.	.	.	4c\	.
1FF	1F	1A	1c	1a
1GG	1E	2B-i\	1r	2.g/
.	.	2G/	.	.
.	.	.	.	4a/
=21	=21	=21	=21	=21
1DD	1.D	2r	0.r	2b-i\
.	.	2A/	.	1a
2r	.	2F/	.	.
1EE	2BB/	1G	.	2.g/
.	2.C/	.	.	.
.	.	.	.	4f/
[2FF/	.	[2A/	.	4e/
.	4D\	.	.	4d/
=22	=22	=22	=22	=22
2FF/]	4E\	2A/]	0.r	1c
.	4F\	.	.	.
1EE	4G\	1G	.	.
.	4F\	.	.	.
.	4E\	.	.	1r
.	4D\	.	.	.
2FF/	1D	2F/	.	.
2GG/	.	1E	.	1r
2AA/	2C#i/	.	.	.
=23	=23	=23	=23	=23
0DD	1D	1D	1.A	0d
.	1r	1F	.	.
.	.	.	2A/	.
1r	1BB	1G	1B	1d
=24	=24	=24	=24	=24
1GG	1GG	1G	1B	1e
1FF	0AA	1C	1A	1.f
1DD	.	1D	2r	.
.	.	.	2d\	4e/
.	.	.	.	4f/
=25	=25	=25	=25	=25
1EE	1GG	1r	2B\	1g
.	.	.	2G/	.
1DD	1r	1D	1A	1f
2r	2GG/	1E	1G	2.g/
2GG/	2BB/	.	.	.
.	.	.	.	4f/
=26	=26	=26	=26	=26
2AA/	2C/	1F	1r	4e/
.	.	.	.	4d/
1BB	1D	.	.	1d
.	.	1G	1G	.
2C/	2E\	.	.	4c/
.	.	.	.	4B/
1AA	1C	1A	2F/	1c
.	.	.	2E/	.
=27	=27	=27	=27	=27
0GG	2r	0B	1G	2r
.	1G	.	.	2d/
.	.	.	2B\	2e/
.	2E\	.	2c\	2.g/
1GG	2D\	1B	[1d	.
.	.	.	.	4f/
.	2G\	.	.	4.d/
.	.	.	.	8e/
=28	=28	=28	=28	=28
1DD	2F\	1A	1d]	1f
.	2D\	.	.	.
0GG	2r	1.G	1B	2e/
.	2GG/	.	.	1d
.	2.BB/	.	1G	.
.	.	2E/	.	2B/
.	4C/	.	.	.
=29	=29	=29	=29	=29
1DD	2.D\	2.F/	2r	1A
.	.	.	2d\	.
.	4BB/	4G/	.	.
1r	4AA/	4A/	4c\	1r
.	4GG/	4B\	4d\	.
.	1C	4c\	2.e\	.
.	.	4B\	.	.
1r	.	4A/	.	1r
.	.	4G/	4c\	.
.	2E\	[2G/	[2c\	.
=30	=30	=30	=30	=30
1r	1D	2G/]	2c\]	1f
.	.	2F/	2B\	.
2r	2C/	0G	2c\	2e/
1GG	2BB/	.	1d	2.g/
.	2GG/	.	.	.
.	.	.	.	8f/L
.	.	.	.	8e/J
2GG/	2BB/	.	2B\	2d/
=31	=31	=31	=31	=31
2AA/	2C/	1r	2A/	2c/
2GG/	4BB/	.	2.B\	2.d/
.	2D\	.	.	.
1DD	.	1F	.	.
.	4C/	.	4A/	4e/
.	2AA/	.	2A/	2f/
1r	1BB	1G	4G/	4e/
.	.	.	4F/	2d/
.	.	.	4E/	.
.	.	.	4D/	4B/
=32	=32	=32	=32	=32
1AA	2r	1A	2E/	2.c/
.	2F\	.	2C/	.
.	.	.	.	4d/
0GG	2.G\	1.B	2r	2e/
.	.	.	2D/	1d
.	8F\L	.	.	.
.	8E\J	.	.	.
.	1D	.	1G	.
.	.	4A/	.	4c/
.	.	4G/	.	4B/
=33	=33	=33	=33	=33
2.D\	2r	1F	1A	2.A/
.	2D\	.	.	.
4C/	.	.	.	4B/
2AA/	2C/	1F	1r	2c/
1BB-i	2BB-i/	.	.	2d/
.	2.D\	[1F	1B-i	2.f/
4AA/	.	.	.	.
4GG/	8C/L	.	.	4g/
.	8BB-i/J	.	.	.
=34	=34	=34	=34	=34
1FF	1AA	1F]	1c	1a
0BB-i	2GG/	1G	1d	1d
.	1D	.	.	.
.	.	1G	1D	1r
.	2BB-i/	.	.	.
=35	=35	=35	=35	=35
1.AA	2C/	0A	2E/	2.c/
.	2FF/	.	2F/	.
.	.	.	.	4d/
.	2C/	.	2E/	2e/
4GG/	2D\	.	2A/	2f/
4FF/	.	.	.	.
1EE	1E	1G	4B\	1g
.	.	.	2c\	.
.	.	.	4B\	.
=36	=36	=36	=36	=36
2DD/	2r	1F	2.d\	1.a
2FF/	1AA	.	.	.
.	.	.	4A/	.
2r	.	0E	2c\	.
2GG/	2BB/	.	2B\	2g/
1AA	1C	.	1A	2r
.	.	.	.	2e/
=37	=37	=37	=37	=37
2.BB-i/	2.D\	0D	2r	2g/
.	.	.	2F/	1f
4GG/	4BB-i/	.	.	.
2FF/	2AA/	.	2A/	.
1GG	1BB-i	.	1G	2d/
.	.	1r	.	2e/
2FF/	2D\	.	2A/	2f/
=38	=38	=38	=38	=38
1GG	2BB-i/	[0.D	2.B-i\	2d/
.	2GG/	.	.	2.d/
.	.	.	4A/	.
1DD	1AA	.	1F	.
.	.	.	.	4c/
.	.	.	.	4B-i/
.	.	.	.	4A/
1r	1GG	.	1G	1B-i
=39	=39	=39	=39	=39
1r	1GG	0.D]	1G	1B-i
0DD	0AA	.	2.F/	1A
.	.	.	4G/	.
.	.	.	[1A	2.d/
.	.	.	.	4e/
=40	=40	=40	=40	=40
2DD/	1.D	1r	2A/]	4f/
.	.	.	.	4g/
1FF	.	.	2.F/	1a
.	.	1r	.	.
.	.	.	4D/	.
2GG/	2BB/	.	2D/	2g/
1AA	1C	1E	1A	1e
=41	=41	=41	=41	=41
2r	2AA/	1F	0.r	0.r
2DD/	2BB/	.	.	.
2EE/	2C/	2E/	.	.
2DD/	2D\	2.F/	.	.
1AA	2r	.	.	.
.	.	8E/L	.	.
.	.	8D/J	.	.
.	2E\	2C/	.	.
=42	=42	=42	=42	=42
2BB/	2D\	2D/	1r	0.r
2C/	1A	2E/	.	.
2.D\	.	2F/	1r	.
.	2F\	1.D	.	.
4C/	.	.	.	.
4BB/	2G\	.	1G	.
4AA/	.	.	.	.
2GG/	2B-i\	.	.	.
=43	=43	=43	=43	=43
2r	1.A	2C/	2E/	0.r
2D\	.	2D/	2F/	.
2C/	.	2AA/	2E/	.
2D\	2F\	2r	2A/	.
2E\	2E\	1r	2G/	.
[2AA/	2F\	.	[2A/	.
=44	=44	=44	=44	=44
4AA/]	2E\	0.r	2A/]	0.r
4GG/	.	.	.	.
4FF/	1A	.	2D/	.
4EE/	.	.	.	.
2FF/	.	.	2C/	.
2DD/	2F\	.	1D	.
1AA	1E	.	.	.
.	.	.	2C#i/	.
=45	=45	=45	=45	=45
1r	2.D\	1r	1D	1A
.	4C/	.	.	.
1.AA	1AA	1E	2r	1.c
.	.	.	2.A/	.
.	1r	1F	.	.
.	.	.	4F/	.
[2BB-i/	.	.	2F/	[2d/
=46	=46	=46	=46	=46
2BB-/]	1r	1G	2D/	2d/]
2GG/	.	.	2E/	2B-i/
0FF	1C	1.A	2F/	1A
.	.	.	1c	.
.	2.F\	.	.	2r
.	.	4G/	2d\	[2a/
.	8E\L	4F/	.	.
.	8D\J	.	.	.
=47	=47	=47	=47	=47
1.C	1C	0E	1e	2a/]
.	.	.	.	4g/
.	.	.	.	4f/
.	2r	.	1.c	1.e
2AA/	2C/	.	.	.
2AA/	2AA/	1E	.	.
2GG/	2BB/	.	2B\	[2g/
=48	=48	=48	=48	=48
2r	1C	1E	1G	2g/]
2C/	.	.	.	2e/
2BB-i/	1r	1.F	2r	2d/
2AA/	.	.	1A	2c/
1BB-i	1D	.	.	1d
.	.	2E/	2G/	.
=49	=49	=49	=49	=49
1AA	2E\	1C	2A/	2r
.	2.A\	.	2.c\	2e/
1r	.	1c	.	2f/
.	4G\	.	4B\	.
.	1E	.	1G	1.g
1r	.	2B\	.	.
.	2C/	2A/	2E/	.
=50	=50	=50	=50	=50
0.r	2D\	0A	2D/	2f/
.	2C/	.	2AA/	2.e/
.	2D\	.	2r	.
.	.	.	.	4d/
.	2F\	.	2D/	1d
.	1E	1G	1E	.
.	.	.	.	2c#i/
=51	=51	=51	=51	=51
0D	1D	1A	2.F/	2.d/
.	.	.	4G/	4B/
.	2r	2F/	1A	2A/
.	2F\	1D	.	2.d/
2GG/	2G\	.	2B-i\	.
.	.	.	.	4e/
2AA/	2F\	2C/	2A/	2f/
=52	=52	=52	=52	=52
2BB/	2D\	2D/	2.G/	1g
2C/	2C/	2E/	.	.
.	.	.	4A/	.
2r	2.D\	1.F	2B-\	2f/
1FF	.	.	2A/	1a
.	4C/	.	.	.
.	2AA/	.	2c\	.
2GG/	2BB/	4E/	2Bni\	2g/
.	.	4D/	.	.
=53	=53	=53	=53	=53
1.AA	2AA/	1C	2.c\	1e
.	2E\	.	.	.
.	.	.	4A/	.
.	2C/	1r	2c\	2f/
2.BB/	2.D\	.	2B\	2.g/
.	.	1D	2G/	.
4AA/	4C/	.	.	4f/
4GG/	4BB/	.	[2G/	4e/
4FF/	4AA/	.	.	4d/
=54	=54	=54	=54	=54
[0.EEl	0GG	[0.El	4G/]	1.c
.	.	.	4F/	.
.	.	.	4E/	.
.	.	.	4D/	.
.	.	.	2C/	.
.	.	.	2r	2B/
.	1BB	.	1G	1B
=55	=55	=55	=55	=55
0.EE]	0.BBl	0.E]	0.Gl	0.Bl
!!LO:LB:i:g=z
=56||	=56||	=56||	=56||	=56||
*>B	*>B	*>B	*>B	*>B
*clefF4	*clefF4	*clefGv2	*clefGv2	*clefG2
*k[]	*k[]	*k[]	*k[]	*k[]
*M2/1	*M2/1	*M2/1	*M2/1	*M2/1
*met(C)	*met(C)	*met(C)	*met(C)	*met(C)
!!section: Qui tollis
!!!OMD: Qui tollis
0EE	0r	0r	0r	0r
=57	=57	=57	=57	=57
1FF	0r	0r	0r	0r
1FF	.	.	.	.
=58	=58	=58	=58	=58
1GG	0BB	0r	0r	0r
1GG	.	.	.	.
=59	=59	=59	=59	=59
1AA	1C	0r	0E	0A
1AA	1C	.	.	.
=60	=60	=60	=60	=60
1DD	1D	0r	1F	1A
1FF	1D	.	1F	1A
=61	=61	=61	=61	=61
1EE	1E	0r	1G	1c
1EE	1E	.	1G	1c
=62	=62	=62	=62	=62
1DD	0AA	0r	1A	1d
1DD	.	.	1A	1d
=63	=63	=63	=63	=63
1FF	1r	0A	1D	1.d
1FF	1D	.	1F	.
.	.	.	.	2B/
=64	=64	=64	=64	=64
1EE	1E	1G	1G	1c
1DD	1AA	1F	[1A	1d
=65	=65	=65	=65	=65
1AA	1C	2.E/	1A]	1e
.	.	4F/	.	.
2BB/	2D\	2G/	1r	2d/
[2C/	[2E\	2A/	.	2c/
=66	=66	=66	=66	=66
4C/]	2E\]	2B\	0r	1e
4BB/	.	.	.	.
4AA/	2C/	1c	.	.
4GG/	.	.	.	.
2.AA/	2F\	.	.	1A
.	[2E\	2A/	.	.
4GG/	.	.	.	.
=67	=67	=67	=67	=67
2EE/	2E\]	4G/	0r	0r
.	.	4F/	.	.
2FF/	1C	1F	.	.
1GG	.	.	.	.
.	2BB/	2E/	.	.
=68	=68	=68	=68	=68
2.FF/	1.C	1F	0F	0f
4GG/	.	.	.	.
2AA/	.	1r	.	.
[2BB-i/	[2D\	.	.	.
=69	=69	=69	=69	=69
4BB-/]	4D\]	0r	1G	1d
4AA/	4C/	.	.	.
4GG/	4BB/	.	.	.
4FF/	4AA/	.	.	.
1EE	2.GG/	.	1G	1e
.	4AA/	.	.	.
=70	=70	=70	=70	=70
1DD	4BB/	0r	1F	1f
.	4AA/	.	.	.
.	1D	.	.	.
1r	.	.	1D	1f
.	2BB/	.	.	.
=71	=71	=71	=71	=71
1r	2C/	0c	1E	1g
.	1AA	.	.	.
1EE	.	.	1E	1g
.	2GG/	.	.	.
=72	=72	=72	=72	=72
2FF/	1AA	1d	1D	1f
1.DD	.	.	.	.
.	2r	1d	[1F	1d
.	[2A\	.	.	.
=73	=73	=73	=73	=73
2FF/	2A\]	1c	2F/]	2r
2GG/	2G\	.	4E/	1e
.	.	.	4D/	.
1AA	2E\	1A	1C	.
.	2C/	.	.	2f/
=74	=74	=74	=74	=74
1GG	4D\	1B-	2r	1g
.	4C/	.	.	.
.	4BB-i/	.	2.BB-i/	.
.	4AA/	.	.	.
1r	1GG	1B-i	.	1g
.	.	.	4C/	.
.	.	.	4D/	.
.	.	.	4E/	.
=75	=75	=75	=75	=75
1DD	1D	1A	1F	1.a
[1AA	1C	[1c	2E/	.
.	.	.	[2C/	4g/
.	.	.	.	4f/
=76	=76	=76	=76	=76
2AA/]	1AA	2c\]	2C/]	2e/
2FF/	.	4B-i\	2c\	2f/
.	.	4A/	.	.
1GG	1BB-i	1G	2B-i\	2d/
.	.	.	2G/	[2d/
=77	=77	=77	=77	=77
0DD	0AA	1.F	1A	2d/]
.	.	.	.	4c/
.	.	.	.	4B/
.	.	.	2D/	1A
.	.	4E/	[2F/	.
.	.	4D/	.	.
=78	=78	=78	=78	=78
1FF	1r	1C	2F/]	1.a
.	.	.	2G/	.
2.FF/	2AA/	1r	[1A	.
.	[2C/	.	.	4g/
4GG/	.	.	.	4f/
=79	=79	=79	=79	=79
1AA	4C/]	0c	1A]	1e
.	4D\	.	.	.
.	4E\	.	.	.
.	8D\L	.	.	.
.	8E\J	.	.	.
1r	2.F\	.	1r	1r
.	4E\	.	.	.
=80	=80	=80	=80	=80
0AA	2F\	1A	0r	0c
.	2.E\	.	.	.
.	.	1A	.	.
.	4D\	.	.	.
.	4C/	.	.	.
.	4BB/	.	.	.
=81	=81	=81	=81	=81
1DD	1.AA	0F	0r	1d
1FF	.	.	.	2c/
.	2C/	.	.	2A/
=82	=82	=82	=82	=82
1GG	2BB/	1.E	0r	1B
.	1E	.	.	.
1AA	.	.	.	1c
.	4D\	2F/	.	.
.	4C/	.	.	.
=83	=83	=83	=83	=83
1r	2D\	1G	1r	1B
.	2E\	.	.	.
2r	1r	1A	1F	2A/
[2AA/	.	.	.	[2c/
=84	=84	=84	=84	=84
4AA/]	0r	2G/	2E/	2c/]
4EE/	.	.	.	.
2FF/	.	2F/	1D	2d/
2GG/	.	1E	.	1e
2AA/	.	.	2C/	.
=85	=85	=85	=85	=85
2FF/	1.D	0r	1F	1d
1BB-i	.	.	.	.
.	.	.	2D/	1r
[2AA/	[2C/	.	2E/	.
=86	=86	=86	=86	=86
2AA/]	4C/]	0r	2F/	0r
.	4AA/	.	.	.
2GG/	2BB/	.	2.E/	.
1FF	2AA/	.	.	.
.	.	.	4C/	.
.	[2D\	.	2D/	.
=87	=87	=87	=87	=87
1EE	4D\]	0r	1E	0r
.	4BB/	.	.	.
.	2C/	.	.	.
1r	2r	.	1D	.
.	[2D\	.	.	.
=88	=88	=88	=88	=88
2r	2D\]	0r	1A	0r
1E	2C/	.	.	.
.	1BB	.	1G	.
2D\	.	.	.	.
=89	=89	=89	=89	=89
2.C/	1AA	0r	2r	0r
.	.	.	2.A/	.
4AA/	.	.	.	.
2BB/	2r	.	.	.
.	.	.	4F/	.
2EE/	[2E\	.	2G/	.
=90	=90	=90	=90	=90
1r	2E\]	0r	1F	0r
.	2D\	.	.	.
1E	2.C/	.	2E/	.
.	.	.	[2A/	.
.	4AA/	.	.	.
=91	=91	=91	=91	=91
2D\	2BB/	0r	4A/]	0r
.	.	.	4F/	.
2.C/	2.E\	.	2G/	.
.	.	.	2.A/	.
4AA/	4C/	.	.	.
2BB/	2D\	.	.	.
.	.	.	8G/L	.
.	.	.	8F/J	.
=92	=92	=92	=92	=92
1EE	2E\	0r	2E/	0r
.	2C/	.	2.G/	.
2.GG/	1BB	.	.	.
.	.	.	8F/L	.
.	.	.	8E/J	.
.	.	.	[2D/	.
4FF/	.	.	.	.
=93	=93	=93	=93	=93
1DD	2.D\	0r	2D/]	0r
.	.	.	2.F/	.
.	4C/	.	.	.
2FF/	2AA/	.	.	.
.	.	.	4E/	.
2GG/	2r	.	[2E/	.
=94	=94	=94	=94	=94
1EE	2C/	0r	4E/]	0r
.	.	.	4F/	.
.	2BB/	.	2.G/	.
2r	2C/	.	.	.
.	.	.	4E/	.
2DD/	2D\	.	4.F/	.
.	.	.	8E/	.
=95	=95	=95	=95	=95
4EE/	8C/L	0r	4G/	0r
.	8BB/J	.	.	.
2FF/	4AA/	.	4F/	.
.	4C/	.	4E/	.
4GG/	4BB/	.	4D/	.
2AA/	2C/	.	4F/	.
.	.	.	4E/	.
4FF/	4AA/	.	4F/	.
[4GG/	[4BB/	.	[4E/	.
=96	=96	=96	=96	=96
4GG/]	4BB/]	0r	4E/]	0r
4FF/	4AA/	.	4D/	.
2DD/	1AA	.	1D	.
1EE	.	.	.	.
.	2GG/	.	2C#i/	.
=97	=97	=97	=97	=97
0DD	0AA	1r	1D	0f
.	.	[1D	[1F	.
=98	=98	=98	=98	=98
1r	1BB-i	1D]	2F/]	0d
.	.	.	2G/	.
1DD	1AA	[1F	[1A	.
=99	=99	=99	=99	=99
1.FF	1r	2F/]	2A/]	1c
.	.	2G/	4G/	.
.	.	.	4F/	.
.	1D	[1A	2F/	1f
2GG/	.	.	4E/	.
.	.	.	4D/	.
=100	=100	=100	=100	=100
1AA	1C	2A/]	2F/	2r
.	.	2B\	2E/	1e
2AA/	2.C/	[1c	[1A	.
[2AA/	.	.	.	[2a/
.	4D\	.	.	.
=101	=101	=101	=101	=101
2AA/]	1.E	2c\]	2A/]	2a/]
2AA/	.	4B\	1c	4g/
.	.	4A/	.	4f/
[1C	.	1G	.	[1e
.	2E\	.	4B\	.
.	.	.	4A/	.
=102	=102	=102	=102	=102
2C/]	1.G	0r	1G	2e/]
2BB/	.	.	.	4d/
.	.	.	.	4c/
1GG	.	.	1d	2.B/
.	4F\	.	.	.
.	4E\	.	.	4G/
=103	=103	=103	=103	=103
2FF/	2.D\	0r	2r	2A/
2GG/	.	.	2D/	1G
.	4BB/	.	.	.
1r	2C/	.	2E/	.
.	2D\	.	2F/	2d/
=104	=104	=104	=104	=104
0r	2GG/	0r	2.G/	2e/
.	2D\	.	.	2d/
.	.	.	4A/	.
.	2r	.	2B\	2.g/
.	2C/	.	2c\	.
.	.	.	.	4e/
=105	=105	=105	=105	=105
0r	2BB/	0r	2d\	2f/
.	2GG/	.	2B\	1g
.	1D	.	1A	.
.	.	.	.	2f#i/
=106	=106	=106	=106	=106
1r	0GG	1r	1G	1.g
[1GG	.	[1D	1B	.
.	.	.	.	4f/
.	.	.	.	4e/
=107	=107	=107	=107	=107
2GG/]	1BB	1D]	2.B\	1d
4FF/	.	.	.	.
4EE/	.	.	4c\	.
[1DD	2.BB/	[1F	2d\	1d
.	.	.	[2d\	.
.	4AA/	.	.	.
=108	=108	=108	=108	=108
1DD]	1D	2F/]	2d\]	1f
.	.	2G/	4c\	.
.	.	.	4B\	.
[1FF	2.D\	[1A	1A	2.f/
.	4C/	.	.	4g/
=109	=109	=109	=109	=109
2FF/]	1F	2A/]	1r	1.a
2GG/	.	2B\	.	.
1AA	2.F\	[1c	1A	.
.	.	.	.	4g/
.	4E\	.	.	4f/
=110	=110	=110	=110	=110
2.AA/	1A	2c\]	2.c\	2.e/
.	.	4B\	.	.
8GG/L	.	4A/	4d\	4f/
8FF/J	.	.	.	.
2EE/	1r	[1G	2e\	[1g
[2GG/	.	.	2d\	.
=111	=111	=111	=111	=111
4GG/]	0r	2G/]	2e\	2g/]
4EE/	.	.	.	.
2FF/	.	2A/	4d\	2f/
.	.	.	4c\	.
2GG/	.	2B\	2B\	1e
2AA/	.	2c\	2A/	.
=112	=112	=112	=112	=112
1DD	2r	1.d	1A	1f
.	2.D\	.	.	.
1r	.	.	1r	2r
.	4BB/	.	.	.
.	2C/	4c\	.	2e/
.	.	4B\	.	.
=113	=113	=113	=113	=113
1r	2D\	2A/	1r	2f/
.	2E\	2G/	.	2g/
2r	1AA	1c	[1c	1e
[2AA/	.	.	.	.
=114	=114	=114	=114	=114
4AA/]	0r	0r	2c\]	2.f/
4DD/	.	.	.	.
2FF/	.	.	4B\	.
.	.	.	4A/	4d/
2GG/	.	.	2G/	2e/
2AA/	.	.	2F/	2f/
=115	=115	=115	=115	=115
2GG/	1r	0r	1B-i	2g/
1D	.	.	.	1f
.	1D	.	2A/	.
2BB/	.	.	2G/	2d/
=116	=116	=116	=116	=116
1AA	2C/	1c	0r	2e/
.	1E	.	.	2A/
1r	.	2B\	.	2G/
.	2C/	[2A/	.	2A/
=117	=117	=117	=117	=117
1r	2BB/	2A/]	1r	1B
.	2E\	2G/	.	.
[1AA	1AA	1r	[1c	[1A
=118	=118	=118	=118	=118
2AA/]	2r	0r	2c\]	1A]
4GG/	2D\	.	4B\	.
4FF/	.	.	4A/	.
2EE/	2E\	.	2G/	2r
2AA/	2C/	.	2F/	2a/
=119	=119	=119	=119	=119
2r	0D	1.d	1B-i	2f/
2GG/	.	.	.	2g/
2DD/	.	.	1r	1a
[2FF/	.	4c\	.	.
.	.	4B\	.	.
=120	=120	=120	=120	=120
2FF/]	1D	2A/	0r	2f/
2GG/	.	2G/	.	2d/
1EE	2r	1c	.	1e
.	2C/	.	.	.
=121	=121	=121	=121	=121
0r	2D\	0r	1B-i	2f/
.	2GG/	.	.	1e
.	2C/	.	2A/	.
.	2E\	.	[2G/	2c/
=122	=122	=122	=122	=122
1r	1D	1r	2G/]	1d
.	.	.	2F/	.
2.C/	2C/	1c	2G/	1e
.	4AA/	.	2r	.
4BB/	[4E\	.	.	.
=123	=123	=123	=123	=123
2GG/	4E\]	2B\	2G/	2r
.	4D\	.	.	.
2AA/	2C/	1A	2.E/	2.e/
1EE	2BB/	.	.	.
.	.	.	4F/	8d/L
.	.	.	.	8c/J
.	[2E\	2G/	2G/	2B/
=124	=124	=124	=124	=124
1AA	4E\]	1A	1C	2A/
.	4C/	.	.	.
.	4E\	.	.	2c/
.	4F\	.	.	.
2BB/	2G\	1r	2D/	2B/
[2AA/	4F\	.	[2A/	[2c/
.	[4E\	.	.	.
=125	=125	=125	=125	=125
4AA/]	4E\]	0r	2A/]	4c/]
4FF/	4D\	.	.	4A/
2GG/	2D\	.	2G/	2B/
1AA	2r	.	1E	2c/
.	2C/	.	.	[2A/
=126	=126	=126	=126	=126
1DD	0D	1A	1F	2A/]
.	.	.	.	2d/
2.DD/	.	2.d\	1A	2.f/
4EE/	.	4c\	.	4g/
=127	=127	=127	=127	=127
2FF/	1D	2A/	2F/	2a/
2.GG/	.	1B	2D/	2.g/
.	1BB	.	2G/	.
4DD/	.	.	.	4f/
2GG/	.	2G/	[2G/	4e/
.	.	.	.	4d/
=128	=128	=128	=128	=128
2r	1AA	2A/	4G/]	1c
.	.	.	4E/	.
2AA/	.	2c\	2F/	.
2GG/	[1D	2B\	2G/	2r
2FF/	.	[2d\	2A/	2f/
=129	=129	=129	=129	=129
2GG/	1D]	2d\]	2r	2d/
2BB/	.	2B\	2G/	2g/
2.AA/	1C	2.c\	1A	2f/
.	.	.	.	[2e/
8GG/L	.	4A/	.	.
8FF/J	.	.	.	.
=130	=130	=130	=130	=130
2EE/	1.E	1B	1G	4e/]
.	.	.	.	8d/L
.	.	.	.	8c/J
2GG/	.	.	.	2B/
2AA/	.	2.c\	2.E/	2A/
[2C/	2C/	.	.	[2e/
.	.	4A/	4F/	.
=131	=131	=131	=131	=131
2C/]	1C	2G/	2G/	2e/]
2AA/	.	2F/	2A/	2f/
2BB-i/	2D\	1B-i	1G	1g
2GG/	2E\	.	.	.
=132	=132	=132	=132	=132
1FF	2F\	1A	2r	2a/
.	1D	.	2A/	1f
1BB-i	.	2.F/	1D	.
.	[2F\	.	.	2d/
.	.	4G/	.	.
=133	=133	=133	=133	=133
2AA/	2F\]	2A/	2F/	4c/
.	.	.	.	4d/
2GG/	1E	2B\	2G/	4e/
.	.	.	.	4f/
2EE/	.	2G/	2B\	2g/
[2FF/	2C/	[2c\	[2A/	[2f/
=134	=134	=134	=134	=134
4FF/]	2D\	4c\]	4A/]	4f/]
4GG/	.	4B\	4G/	4e/
2AA/	2AA/	1A	2E/	1e
2EE/	1BB	.	1G	.
2GG/	.	2G/	.	2d/
=135	=135	=135	=135	=135
2FF/	[0AA	[0Al	2C/	1.f
1DD	.	.	2D/	.
.	.	.	2F/	.
2CC/	.	.	2E/	2g/
=136	=136	=136	=136	=136
2.FF/	0AA]	0A_	2D/	1.a
.	.	.	1F	.
4GG/	.	.	.	.
[1AAl	.	.	.	.
.	.	.	4E/	4g/
.	.	.	4D/	4f/
=137	=137	=137	=137	=137
0AA_	[0Cl	0A_	0C	[0el
=138	=138	=138	=138	=138
0AA]	0C]	0A]	0El	0e]
==	==	==	==	==
*-	*-	*-	*-	*-
!!!RDF**kern: l=long note in original notation
!!!RDF**kern: i=editorial accidental
!!!RDF**kern: V=start of tuplet marker
!!!RDF**kern: Z=end of tuplet marker
!!!ENC:	Chris Gage 06-29-2012
!!!END:	2012/08/16/
!!!EED:	Jesse Rodin
!!!EEV:	2012/08/16/
!!!ONB:	Translated from MusicXML and edited on 2012/08/16/ by Craig Sapp
!!muse2ps: T^@{OPR}^u^@{ONM}{. }@{OTL}^C^@{COM}^i2I150v85,85,85,85,130Q8c120
